X: 1019
T: Hicaz Aranağme (Evfer)
C: ?
O: Turkey
F: http://compmusic.upf.edu/node/140
N: hicaz--aranagme--evfer--1--
N: makam= hicaz
N: form= aranagme
N: usul= evfer = 9/8
M: 9/8
L: 1/16
K: C _7/8B ^f ^c 
Q: 1/4=120
%%MIDI tuningsystem comma53
d4 ^3/4c4 B4 A2A4 | =f4e4d4^3/4c2 c4  | \
w:  SAZ  |   | 
g4 e4 ^3/4c4 e2e4 | ^3/4c4A4B2 c2A2 A4  | 
w:   |   | 
B8 G4 A2A4 | B8G4A2 A4  | d4 ^3/4c4 B4 A2A4 | \
w:   |   |  SAZ  | 
=f4e4d4^3/4c2 c4  | g4 e4 ^3/4c4 e2e4 | 
w:   |   | 
^3/4c4A4B2 c2A2 A4  | B8 G4 A2A4 | B8G4A2 A4  | |


